gtk-icons/Papirus-Dark-GTK/16x16/actions/kdenlive-custom-effect.svg

<?xml version="1.0" encoding="UTF-8" standalone="no"?>
<!-- Created with Inkscape (http://www.inkscape.org/) -->

<svg
   xmlns:osb="http://www.openswatchbook.org/uri/2009/osb"
   xmlns:dc="http://purl.org/dc/elements/1.1/"
   xmlns:cc="http://creativecommons.org/ns#"
   xmlns:rdf="http://www.w3.org/1999/02/22-rdf-syntax-ns#"
   xmlns:svg="http://www.w3.org/2000/svg"
   xmlns="http://www.w3.org/2000/svg"
   xmlns:sodipodi="http://sodipodi.sourceforge.net/DTD/sodipodi-0.dtd"
   xmlns:inkscape="http://www.inkscape.org/namespaces/inkscape"
   sodipodi:docname="kdenlive-custom-effect.svg"
   inkscape:export-filename="/home/sam/source-symbolic.png"
   inkscape:export-xdpi="270"
   inkscape:export-ydpi="270"
   height="16"
   id="svg7384"
   style="enable-background:new"
   version="1.1"
   inkscape:version="0.91 r"
   width="16">
  <sodipodi:namedview
     inkscape:bbox-nodes="true"
     inkscape:bbox-paths="false"
     bordercolor="#666666"
     borderlayer="false"
     borderopacity="1"
     inkscape:current-layer="layer12"
     inkscape:cx="8.9004099"
     inkscape:cy="7.1159132"
     gridtolerance="10"
     inkscape:guide-bbox="true"
     guidetolerance="10"
     id="namedview88"
     inkscape:object-nodes="true"
     inkscape:object-paths="true"
     objecttolerance="10"
     pagecolor="#f7f7f7"
     inkscape:pageopacity="0"
     inkscape:pageshadow="2"
     showborder="true"
     showgrid="false"
     showguides="true"
     inkscape:showpageshadow="false"
     inkscape:snap-bbox="true"
     inkscape:snap-bbox-edge-midpoints="false"
     inkscape:snap-bbox-midpoints="true"
     inkscape:snap-center="false"
     inkscape:snap-global="true"
     inkscape:snap-grids="true"
     inkscape:snap-intersection-paths="true"
     inkscape:snap-midpoints="true"
     inkscape:snap-nodes="true"
     inkscape:snap-object-midpoints="true"
     inkscape:snap-others="true"
     inkscape:snap-page="false"
     inkscape:snap-smooth-nodes="true"
     inkscape:snap-to-guides="true"
     inkscape:window-height="842"
     inkscape:window-maximized="1"
     inkscape:window-width="1600"
     inkscape:window-x="-4"
     inkscape:window-y="32"
     inkscape:zoom="13.12">
    <inkscape:grid
       color="#ffffff"
       dotted="false"
       empcolor="#0800ff"
       empopacity="0.4627451"
       empspacing="4"
       enabled="true"
       id="grid4866"
       opacity="0.16470588"
       originx="-44.000624"
       originy="-256.00334"
       snapvisiblegridlinesonly="true"
       spacingx="0.25px"
       spacingy="0.25px"
       type="xygrid"
       visible="true" />
  </sodipodi:namedview>
  <metadata
     id="metadata90">
    <rdf:RDF>
      <cc:Work
         rdf:about="">
        <dc:format>image/svg+xml</dc:format>
        <dc:type
           rdf:resource="http://purl.org/dc/dcmitype/StillImage" />
        <dc:title>Paper Symbolic Icon Theme</dc:title>
      </cc:Work>
    </rdf:RDF>
  </metadata>
  <title
     id="title8473">Paper Symbolic Icon Theme</title>
  <defs
     id="defs7386">
    <linearGradient
       id="linearGradient5606"
       osb:paint="solid">
      <stop
         id="stop5608"
         offset="0"
         style="stop-color:#ffffff;stop-opacity:1;" />
    </linearGradient>
  </defs>
  <g
     inkscape:groupmode="layer"
     id="layer12"
     inkscape:label="actions"
     style="display:inline"
     transform="translate(-285.00082,39.00334)">
    <path
       inkscape:connector-curvature="0"
       d="m 291.73956,-36.00334 -0.11121,1.316964 a 3.9639616,3.9285714 0 0 0 -1.1585,0.664065 l -1.20777,-0.563615 -1.26126,2.165172 1.09656,0.75475 a 3.9639616,3.9285714 0 0 0 -0.0605,0.662664 3.9639616,3.9285714 0 0 0 0.0577,0.665457 l -1.09376,0.751957 1.26126,2.165172 1.20496,-0.562215 a 3.9639616,3.9285714 0 0 0 1.16131,0.659872 l 0.11122,1.319757 2.52252,0 0.11119,-1.316964 a 3.9639616,3.9285714 0 0 0 1.15851,-0.664065 l 1.20776,0.563615 1.26126,-2.165172 -1.09656,-0.75475 a 3.9639616,3.9285714 0 0 0 0.0605,-0.662664 3.9639616,3.9285714 0 0 0 -0.0577,-0.665457 l 1.09374,-0.751957 -1.26126,-2.165172 -1.20496,0.562215 a 3.9639616,3.9285714 0 0 0 -1.16131,-0.659872 l -0.11119,-1.319757 -2.52252,0 z m 1.26126,3.571429 a 1.4414406,1.4285714 0 0 1 1.44144,1.428571 1.4414406,1.4285714 0 0 1 -1.44144,1.428571 1.4414406,1.4285714 0 0 1 -1.44144,-1.428571 1.4414406,1.4285714 0 0 1 1.44144,-1.428571 z"
       id="path10500-6-2"
       style="display:inline;opacity:0.72;fill:#ffffff;fill-opacity:1;stroke:none;enable-background:new" />
    <path
       style="opacity:0.72;fill:#ffffff;fill-opacity:1;fill-rule:nonzero;stroke:none;stroke-width:8;stroke-miterlimit:4;stroke-dasharray:none;stroke-opacity:1"
       d="M 2 0 C 0.892 0 0 0.892 0 2 L 0 14 C 0 15.108 0.892 16 2 16 L 14 16 C 15.108 16 16 15.108 16 14 L 16 2 C 16 0.892 15.108 0 14 0 L 2 0 z M 3.7148438 2 L 12.285156 2 C 13.234876 2 14 2.7651287 14 3.7148438 L 14 12.285156 C 14 13.234871 13.234876 14 12.285156 14 L 3.7148438 14 C 2.7651237 14 2 13.234871 2 12.285156 L 2 3.7148438 C 2 2.7651288 2.7651237 2 3.7148438 2 z "
       transform="translate(285.00082,-39.00334)"
       id="rect4139" />
  </g>
</svg>

<?xml version="1.0" encoding="UTF-8" standalone="no"?>
<!-- Created with Inkscape (http://www.inkscape.org/) -->
<svg id="svg7384" xmlns:rdf="http://www.w3.org/1999/02/22-rdf-syntax-ns#" style="enable-background:new" xmlns="http://www.w3.org/2000/svg" xmlns:osb="http://www.openswatchbook.org/uri/2009/osb" height="16" width="16" version="1.1" xmlns:cc="http://creativecommons.org/ns#" xmlns:dc="http://purl.org/dc/elements/1.1/">
 <metadata id="metadata90">
  <rdf:RDF>
   <cc:Work rdf:about="">
    <dc:format>image/svg+xml</dc:format>
    <dc:type rdf:resource="http://purl.org/dc/dcmitype/StillImage"/>
    <dc:title>Paper Symbolic Icon Theme</dc:title>
   </cc:Work>
  </rdf:RDF>
 </metadata>
 <title id="title8473">Paper Symbolic Icon Theme</title>
 <g id="layer12" transform="translate(-285 39.003)" fill="#fff">
  <path id="path10500-6-2" opacity=".72" style="enable-background:new" d="m291.74-36.003-0.11121 1.317a3.964 3.9286 0 0 0 -1.1585 0.66406l-1.2078-0.56362-1.2613 2.1652 1.0966 0.75475a3.964 3.9286 0 0 0 -0.0605 0.66266 3.964 3.9286 0 0 0 0.0577 0.66546l-1.0938 0.75196 1.2613 2.1652 1.205-0.56222a3.964 3.9286 0 0 0 1.1613 0.65987l0.11122 1.3198h2.5225l0.11119-1.317a3.964 3.9286 0 0 0 1.1585 -0.66406l1.2078 0.56362 1.2613-2.1652-1.0966-0.75475a3.964 3.9286 0 0 0 0.0605 -0.66266 3.964 3.9286 0 0 0 -0.0577 -0.66546l1.0937-0.75196-1.2613-2.1652-1.205 0.56222a3.964 3.9286 0 0 0 -1.1613 -0.65987l-0.11119-1.3198h-2.5225zm1.2613 3.5714a1.4414 1.4286 0 0 1 1.4414 1.4286 1.4414 1.4286 0 0 1 -1.4414 1.4286 1.4414 1.4286 0 0 1 -1.4414 -1.4286 1.4414 1.4286 0 0 1 1.4414 -1.4286z"/>
  <path id="rect4139" opacity=".72" d="m2 0c-1.108 0-2 0.892-2 2v12c0 1.108 0.892 2 2 2h12c1.108 0 2-0.892 2-2v-12c0-1.108-0.892-2-2-2h-12zm1.7148 2h8.5702c0.95 0 1.715 0.7651 1.715 1.7148v8.5702c0 0.95-0.765 1.715-1.715 1.715h-8.5702c-0.9497 0-1.7148-0.765-1.7148-1.715v-8.5702c0-0.9497 0.7651-1.7148 1.7148-1.7148z" transform="translate(285 -39.003)"/>
 </g>
</svg>
